lib/icons/lines_dark.svg

<svg version="1.1" viewBox="0 0 48 48" xmlns="http://www.w3.org/2000/svg">
    <path d="m19.318 4.625-1.2949 9.0684-3.8906 23.346-4.9609 4.9609h-7.1719v4h8.8281l7.0391-7.0391 4.1094-24.654 0.70508-4.9297 1.7305 0.3457 1.6094 5.6328 2.0645 26.828 6.3594 3.8164h11.555v-4h-10.445l-3.6406-2.1836-1.9355-25.172-2.3906-8.3672z" color="#000000" color-rendering="auto" dominant-baseline="auto" fill="#fff" image-rendering="auto" shape-rendering="auto" solid-color="#000000" style="font-feature-settings:normal;font-variant-alternates:normal;font-variant-caps:normal;font-variant-ligatures:normal;font-variant-numeric:normal;font-variant-position:normal;isolation:auto;mix-blend-mode:normal;shape-padding:0;text-decoration-color:#000000;text-decoration-line:none;text-decoration-style:solid;text-indent:0;text-orientation:mixed;text-transform:none;white-space:normal"/>
    <g fill="#ff2a2a">
        <path d="m40 32v14h4v-14z"/>
        <path d="m4 32v14h4v-14z"/>
        <path d="m4 18v10h4v-10z"/>
        <path d="m40 18v10h4v-10z"/>
        <path d="m4 2v12h4v-12z"/>
        <path d="m40 2v12h4v-12z"/>
        <rect x="14" y="42" width="8" height="4" style="paint-order:normal"/>
        <rect x="26" y="42" width="8" height="4" style="paint-order:normal"/>
    </g>
</svg>

<?xml version="1.0" encoding="UTF-8" standalone="no"?>
<svg
   xmlns:dc="http://purl.org/dc/elements/1.1/"
   xmlns:cc="http://creativecommons.org/ns#"
   xmlns:rdf="http://www.w3.org/1999/02/22-rdf-syntax-ns#"
   xmlns:svg="http://www.w3.org/2000/svg"
   xmlns="http://www.w3.org/2000/svg"
   xmlns:sodipodi="http://sodipodi.sourceforge.net/DTD/sodipodi-0.dtd"
   xmlns:inkscape="http://www.inkscape.org/namespaces/inkscape"
   version="1.1"
   viewBox="0 0 48 48"
   id="svg22"
   sodipodi:docname="lines_dark.svg"
   inkscape:version="0.92.4 (f8dce91, 2019-08-02)">
  <metadata
     id="metadata28">
    <rdf:RDF>
      <cc:Work
         rdf:about="">
        <dc:format>image/svg+xml</dc:format>
        <dc:type
           rdf:resource="http://purl.org/dc/dcmitype/StillImage" />
      </cc:Work>
    </rdf:RDF>
  </metadata>
  <defs
     id="defs26" />
  <sodipodi:namedview
     pagecolor="#ffffff"
     bordercolor="#666666"
     borderopacity="1"
     objecttolerance="10"
     gridtolerance="10"
     guidetolerance="10"
     inkscape:pageopacity="0"
     inkscape:pageshadow="2"
     inkscape:window-width="1366"
     inkscape:window-height="744"
     id="namedview24"
     showgrid="false"
     inkscape:zoom="4.9166667"
     inkscape:cx="-13.627119"
     inkscape:cy="24"
     inkscape:window-x="0"
     inkscape:window-y="24"
     inkscape:window-maximized="1"
     inkscape:current-layer="svg22" />
  <path
     d="m19.318 4.625-1.2949 9.0684-3.8906 23.346-4.9609 4.9609h-7.1719v4h8.8281l7.0391-7.0391 4.1094-24.654 0.70508-4.9297 1.7305 0.3457 1.6094 5.6328 2.0645 26.828 6.3594 3.8164h11.555v-4h-10.445l-3.6406-2.1836-1.9355-25.172-2.3906-8.3672z"
     color="#000000"
     color-rendering="auto"
     dominant-baseline="auto"
     fill="#fff"
     image-rendering="auto"
     shape-rendering="auto"
     solid-color="#000000"
     style="font-feature-settings:normal;font-variant-alternates:normal;font-variant-caps:normal;font-variant-ligatures:normal;font-variant-numeric:normal;font-variant-position:normal;isolation:auto;mix-blend-mode:normal;shape-padding:0;text-decoration-color:#000000;text-decoration-line:none;text-decoration-style:solid;text-indent:0;text-orientation:mixed;text-transform:none;white-space:normal"
     id="path2" />
  <path
     style="fill:#ff2a2a;fill-opacity:1"
     inkscape:connector-curvature="0"
     id="path4"
     d="m 40,32 v 14 h 4 V 32 Z" />
  <path
     style="fill:#ff2a2a;fill-opacity:1"
     inkscape:connector-curvature="0"
     id="path6"
     d="M 4,32 V 46 H 8 V 32 Z" />
  <path
     style="fill:#ff2a2a;fill-opacity:1"
     inkscape:connector-curvature="0"
     id="path8"
     d="M 4,18 V 28 H 8 V 18 Z" />
  <path
     style="fill:#ff2a2a;fill-opacity:1"
     inkscape:connector-curvature="0"
     id="path10"
     d="m 40,18 v 10 h 4 V 18 Z" />
  <path
     style="fill:#ff2a2a;fill-opacity:1"
     inkscape:connector-curvature="0"
     id="path12"
     d="M 4,2 V 14 H 8 V 2 Z" />
  <path
     style="fill:#ff2a2a;fill-opacity:1"
     inkscape:connector-curvature="0"
     id="path14"
     d="m 40,2 v 12 h 4 V 2 Z" />
  <rect
     id="rect16"
     style="fill:#ff2a2a;fill-opacity:1;paint-order:normal"
     height="4"
     width="8"
     y="42"
     x="14" />
  <rect
     id="rect18"
     style="fill:#ff2a2a;fill-opacity:1;paint-order:normal"
     height="4"
     width="8"
     y="42"
     x="26" />
</svg>
